www/images/espace.svg

<?xml version="1.0" encoding="UTF-8" standalone="no"?>
<svg
   xmlns:dc="http://purl.org/dc/elements/1.1/"
   xmlns:cc="http://creativecommons.org/ns#"
   xmlns:rdf="http://www.w3.org/1999/02/22-rdf-syntax-ns#"
   xmlns:svg="http://www.w3.org/2000/svg"
   xmlns="http://www.w3.org/2000/svg"
   xmlns:sodipodi="http://sodipodi.sourceforge.net/DTD/sodipodi-0.dtd"
   xmlns:inkscape="http://www.inkscape.org/namespaces/inkscape"
   fill-opacity="1"
   color-rendering="auto"
   color-interpolation="auto"
   stroke="black"
   text-rendering="auto"
   stroke-linecap="square"
   stroke-miterlimit="10"
   stroke-opacity="1"
   shape-rendering="auto"
   fill="black"
   stroke-dasharray="none"
   font-weight="normal"
   stroke-width="1"
   font-family="'Dialog'"
   font-style="normal"
   stroke-linejoin="miter"
   font-size="12"
   stroke-dashoffset="0"
   image-rendering="auto"
   id="svg2"
   version="1.1"
   inkscape:version="0.48.5 r10040"
   width="100%"
   height="100%"
   sodipodi:docname="espace.svg">
  <metadata
     id="metadata13">
    <rdf:RDF>
      <cc:Work
         rdf:about="">
        <dc:format>image/svg+xml</dc:format>
        <dc:type
           rdf:resource="http://purl.org/dc/dcmitype/StillImage" />
        <dc:title></dc:title>
      </cc:Work>
    </rdf:RDF>
  </metadata>
  <sodipodi:namedview
     pagecolor="#ffffff"
     bordercolor="#666666"
     borderopacity="1"
     objecttolerance="10"
     gridtolerance="10"
     guidetolerance="10"
     inkscape:pageopacity="0"
     inkscape:pageshadow="2"
     inkscape:window-width="1331"
     inkscape:window-height="750"
     id="namedview11"
     showgrid="false"
     inkscape:zoom="1.2685914"
     inkscape:cx="223.80233"
     inkscape:cy="820.02361"
     inkscape:window-x="35"
     inkscape:window-y="18"
     inkscape:window-maximized="1"
     inkscape:current-layer="svg2" />
  <!--Unicode Character 'PERSON WITH BALL' (U+26F9)-->
  <defs
     id="genericDefs" />
  <g
     id="g5"
     transform="translate(-15.765518,-72.94483)">
    <g
       id="g7">
      <path
         d="m 157.9219,104.4844 q 0,12.2344 -8.9297,21.3047 -8.9297,9.0703 -21.1641,9.0703 -12.0937,0 -21.164,-9.1406 -9.0703,-9.1407 -9.0703,-21.2344 0,-12.0938 9.0703,-21.3047 9.0703,-9.2109 21.164,-9.2109 12.5157,0 21.3047,9 8.7891,9 8.7891,21.5156 z m 96.75,109.5468 q 0,10.6876 -8.2969,18.9141 -8.2969,8.2266 -19.125,8.2266 -10.9688,0 -18.8438,-8.0157 -7.875,-8.0156 -7.875,-19.125 0,-11.6718 7.6641,-19.4062 7.6641,-7.7344 19.3359,-7.7344 11.1094,0 19.125,8.0156 8.0157,8.0157 8.0157,19.125 z m 16.7343,116.0157 -98.0156,0 q -16.1718,0 -21.375,-12.5157 -1.6875,-3.9374 -6.3281,-19.8281 -4.6406,-15.8906 -13.7813,-47.6719 l -7.5937,0 q -5.0625,15.75 -14.3437,47.3907 -4.3594,16.875 -7.7344,22.2187 -6.3282,10.4063 -19.5469,10.4063 l -66.0937,0 0,-11.1094 50.3437,0 28.125,-96.6094 0,-43.875 -49.6406,58.7813 q -14.9063,-6.0469 -14.9063,-19.8282 0,-5.4843 6.0469,-12.5156 5.0625,-5.9062 15.1875,-18 9,-11.25 18,-22.5 13.3594,-16.0312 19.5469,-19.6875 8.0156,-4.7812 17.0156,-4.7812 l 137.1094,0 q -7.1719,26.8593 -17.5781,26.8593 l -65.6719,0 0,54.4219 q 6.3281,21.2344 29.5312,97.7344 l 81.7031,0 0,11.1094 z"
         id="path9"
         inkscape:connector-curvature="0"
         style="stroke:none" />
    </g>
  </g>
</svg>

<?xml version="1.0"?>

<!DOCTYPE svg PUBLIC '-//W3C//DTD SVG 1.0//EN' 'http://www.w3.org/TR/2001/REC-SVG-20010904/DTD/svg10.dtd'>
<svg fill-opacity="1" xmlns:xlink="http://www.w3.org/1999/xlink" color-rendering="auto" color-interpolation="auto" stroke="black" text-rendering="auto" stroke-linecap="square" stroke-miterlimit="10" stroke-opacity="1" shape-rendering="auto" fill="black" stroke-dasharray="none" font-weight="normal" stroke-width="1" xmlns="http://www.w3.org/2000/svg" font-family="&apos;Dialog&apos;" font-style="normal" stroke-linejoin="miter" font-size="12" stroke-dashoffset="0" image-rendering="auto">
  <!--Unicode Character 'PERSON WITH BALL' (U+26F9)-->
  <defs id="genericDefs" />
  <g>
    <g>
      <path d="M157.9219 104.4844 Q157.9219 116.7188 148.9922 125.7891 Q140.0625 134.8594 127.8281 134.8594 Q115.7344 134.8594 106.6641 125.7188 Q97.5938 116.5781 97.5938 104.4844 Q97.5938 92.3906 106.6641 83.1797 Q115.7344 73.9688 127.8281 73.9688 Q140.3438 73.9688 149.1328 82.9688 Q157.9219 91.9688 157.9219 104.4844 ZM254.6719 214.0312 Q254.6719 224.7188 246.375 232.9453 Q238.0781 241.1719 227.25 241.1719 Q216.2812 241.1719 208.4062 233.1562 Q200.5312 225.1406 200.5312 214.0312 Q200.5312 202.3594 208.1953 194.625 Q215.8594 186.8906 227.5312 186.8906 Q238.6406 186.8906 246.6562 194.9062 Q254.6719 202.9219 254.6719 214.0312 ZM271.4062 330.0469 L173.3906 330.0469 Q157.2188 330.0469 152.0156 317.5312 Q150.3281 313.5938 145.6875 297.7031 Q141.0469 281.8125 131.9062 250.0312 L124.3125 250.0312 Q119.25 265.7812 109.9688 297.4219 Q105.6094 314.2969 102.2344 319.6406 Q95.9062 330.0469 82.6875 330.0469 L16.5938 330.0469 L16.5938 318.9375 L66.9375 318.9375 L95.0625 222.3281 L95.0625 178.4531 L45.4219 237.2344 Q30.5156 231.1875 30.5156 217.4062 Q30.5156 211.9219 36.5625 204.8906 Q41.625 198.9844 51.75 186.8906 Q60.75 175.6406 69.75 164.3906 Q83.1094 148.3594 89.2969 144.7031 Q97.3125 139.9219 106.3125 139.9219 L243.4219 139.9219 Q236.25 166.7812 225.8438 166.7812 L160.1719 166.7812 L160.1719 221.2031 Q166.5 242.4375 189.7031 318.9375 L271.4062 318.9375 L271.4062 330.0469 Z" stroke="none" />
    </g>
  </g>
</svg>
